X:5969
T:Gan Ainm
R:reel
N:A version of this tune was published in an issue (?) Ceol by Breathnach
D:?
Z:Adrian Scahill
M:4/4
L:1/8
K:C
EAAG ABcd|efed cdef|eAA2 BAGB|AcBA GEDG|\
EAAG ABcd|efed cdef|eAA2 BAGB|1 AcBG A3G:|2 AcBG ABcd||\
eaag agdg|eaag egdf|eAA2 BAGB|(3ABc BA GED2|\
1 a3g egdg|eaag egdf|eAA2 BAGB |AcBG A4:|2 EAAG ABcd|efed cdef|eAA2 BAGB|AbBG A4:||


